static/assets/template/assets/img/icons/clothing/trousers.svg

<svg viewBox="0 0 89.86 119.97" xmlns="http://www.w3.org/2000/svg"><path d="m77.1 12h-64.35l-8 92.28 33.16 3.51 5.86-67.56h2.33l5.9 67.56 33.16-3.5zm-.27-3.14v-4.86h-63.83v4.86l-.08 1.14h64zm-72.83 104.14 33.19 3 .54-6.17-33.16-3.5zm81.89 0-.59-6.74-33.16 3.5.54 6.17zm3 2.58a4 4 0 0 1 -2.68 1.42l-33.21 3h-.35a3.94 3.94 0 0 1 -2.55-1 4 4 0 0 1 -1.41-2.73l-3.76-43.27-3.77 43.3a4 4 0 0 1 -1.41 2.7 3.94 3.94 0 0 1 -2.56.94h-.35l-33.2-2.94a4 4 0 0 1 -2.71-1.4 4.06 4.06 0 0 1 -.93-2.94l9-104v-4.66a4 4 0 0 1 4-4h63.83a4 4 0 0 1 4 4v4.69l9 104a4.06 4.06 0 0 1 -.91 2.91z" fill-rule="evenodd"/></svg>

<svg xmlns="http://www.w3.org/2000/svg" viewBox="0 0 89.86 119.97"><defs><style>.cls-1{fill-rule:evenodd;}</style></defs><title>trousers</title><g id="Layer_2" data-name="Layer 2"><g id="Layer"><path class="cls-1" d="M77.1,12H12.75l-8,92.28,33.16,3.51,5.86-67.56h2.33L52,107.79l33.16-3.5Zm-.27-3.14V4H13V8.86L12.92,10h64ZM4,113,37.19,116l.54-6.17-33.16-3.5Zm81.89,0-.59-6.74-33.16,3.5.54,6.17Zm3,2.58A4,4,0,0,1,86.21,117L53,120h-.35A3.94,3.94,0,0,1,50.1,119a4,4,0,0,1-1.41-2.73L44.93,73,41.16,116.3A4,4,0,0,1,39.75,119a3.94,3.94,0,0,1-2.56.94h-.35L3.64,117A4,4,0,0,1,.93,115.6,4.06,4.06,0,0,1,0,112.66l9-104V4a4,4,0,0,1,4-4H76.83a4,4,0,0,1,4,4V8.69l9,104A4.06,4.06,0,0,1,88.92,115.6Z"/></g></g></svg>
